X: 36289
T: Seamus Devaney's
R: jig
M: 6/8
K: Dmajor
Add f2A|dfa gec|Add faa|ged cAG|
Ade f2A|ded g3|faa ged|cAG AGE:|
FDD ADD|ded cAG|FDD ADD|cAG AGE|
FDD ADD|ded cde|dfa gfe|dcA GED|
FDD ADD|ded cAG|FDD ADD|cAG AGE|
FDD ADD|ded cde|faf ged|cAG AGE|

